static/site/images/special-projects/autoclave/svg/3-stroke.svg

<svg width="64" height="75" viewBox="0 0 64 75" fill="none" xmlns="http://www.w3.org/2000/svg">
<path d="M27.144 72.92L27.121 74.9199L27.1325 74.92H27.144V72.92ZM13.032 69.368L11.9694 71.0624L11.9861 71.0728L12.003 71.083L13.032 69.368ZM4.584 60.056L2.77163 60.9018L2.77738 60.9141L2.7833 60.9263L4.584 60.056ZM2.472 47.48L2.48157 45.48L0.634631 45.4712L0.479104 47.3116L2.472 47.48ZM22.536 47.576L24.5355 47.6225L24.5828 45.5858L22.5456 45.576L22.536 47.576ZM24.168 54.104L22.5449 55.2726L22.5716 55.3096L22.5999 55.3454L24.168 54.104ZM29.544 56.6L29.4361 58.5971L29.4597 58.5984L29.4834 58.5991L29.544 56.6ZM35.304 55.16L36.3236 56.8806L36.3328 56.8751L36.342 56.8696L35.304 55.16ZM38.472 50.264L36.5185 49.8352L36.5035 49.9037L36.4933 49.973L38.472 50.264ZM35.784 44.6L34.8704 46.3791L34.8896 46.389L34.9091 46.3985L35.784 44.6ZM26.568 42.68L24.5862 42.4106L24.283 44.6416L26.5341 44.6797L26.568 42.68ZM27.912 32.792L25.9353 32.4879L25.9326 32.5052L25.9302 32.5226L27.912 32.792ZM28.296 30.296L28.1584 28.3007L26.5625 28.4108L26.3193 29.9919L28.296 30.296ZM33.864 29.24L34.4568 31.1501L34.4767 31.144L34.4965 31.1374L33.864 29.24ZM38.76 26.744L39.9721 28.3349L39.9955 28.317L40.0184 28.2985L38.76 26.744ZM40.968 22.808L42.9611 22.9741L42.9621 22.9623L42.9629 22.9505L40.968 22.808ZM36.168 18.776L36.047 20.7723L36.1075 20.776H36.168V18.776ZM30.888 20.6L29.5071 19.1533L29.507 19.1533L30.888 20.6ZM28.008 25.304L27.998 27.304L29.5144 27.3116L29.931 25.8534L28.008 25.304ZM8.904 25.208L6.93358 24.8653L6.52823 27.1961L8.89395 27.208L8.904 25.208ZM13.992 13.496L15.5739 14.7197L15.5794 14.7126L15.5849 14.7054L13.992 13.496ZM23.976 5.336L23.1041 3.536L23.093 3.54148L23.976 5.336ZM50.568 4.664L49.8144 6.51659L49.8332 6.52423L49.8521 6.53149L50.568 4.664ZM59.304 11.192L57.657 12.3266L57.6715 12.3477L57.6865 12.3683L59.304 11.192ZM61.512 21.464L59.5321 21.1812L59.5311 21.1882L59.5301 21.1953L61.512 21.464ZM56.904 30.584L55.5661 29.0974L55.5567 29.1058L55.5474 29.1144L56.904 30.584ZM47.784 35.96L47.1113 34.0765L42.0412 35.8873L47.0639 37.8258L47.784 35.96ZM58.536 52.376L56.5538 52.1097L56.5533 52.1136L58.536 52.376ZM42.024 70.52L41.3597 68.6335L41.3513 68.6365L42.024 70.52ZM27.167 70.9201C21.8681 70.8592 17.531 69.735 14.061 67.653L12.003 71.083C16.213 73.609 21.2839 74.8528 27.121 74.9199L27.167 70.9201ZM14.0946 67.6736C10.6221 65.496 8.06946 62.6714 6.3847 59.1857L2.7833 60.9263C4.81054 65.1206 7.88986 68.504 11.9694 71.0624L14.0946 67.6736ZM6.39637 59.2102C4.76326 55.7107 4.10799 51.8718 4.4649 47.6484L0.479104 47.3116C0.0680061 52.1762 0.820737 56.7213 2.77163 60.9018L6.39637 59.2102ZM2.46243 49.48L22.5264 49.576L22.5456 45.576L2.48157 45.48L2.46243 49.48ZM20.5365 47.5295C20.4663 50.5481 21.0551 53.2034 22.5449 55.2726L25.7911 52.9354C24.9769 51.8046 24.4777 50.1079 24.5355 47.6225L20.5365 47.5295ZM22.5999 55.3454C24.246 57.4247 26.6268 58.4452 29.4361 58.5971L29.652 54.6029C27.7252 54.4988 26.522 53.8553 25.7361 52.8626L22.5999 55.3454ZM29.4834 58.5991C31.9539 58.6739 34.2519 58.1083 36.3236 56.8806L34.2844 53.4394C32.9001 54.2597 31.3581 54.6541 29.6046 54.6009L29.4834 58.5991ZM36.342 56.8696C38.6712 55.4554 40.0489 53.2871 40.4507 50.555L36.4933 49.973C36.2551 51.5929 35.5208 52.6886 34.266 53.4504L36.342 56.8696ZM40.4255 50.6928C40.7812 49.0725 40.7254 47.4691 40.0389 46.0225C39.35 44.571 38.143 43.5235 36.6589 42.8015L34.9091 46.3985C35.793 46.8285 36.218 47.301 36.4251 47.7375C36.6346 48.1789 36.7388 48.8315 36.5185 49.8352L40.4255 50.6928ZM36.6976 42.8209C33.9675 41.4189 30.5644 40.7474 26.6019 40.6803L26.5341 44.6797C30.1236 44.7406 32.8645 45.3491 34.8704 46.3791L36.6976 42.8209ZM28.5498 42.9494L29.8938 33.0614L25.9302 32.5226L24.5862 42.4106L28.5498 42.9494ZM29.8887 33.0961L30.2727 30.6001L26.3193 29.9919L25.9353 32.4879L29.8887 33.0961ZM28.4336 32.2913C30.4509 32.1521 32.4595 31.77 34.4568 31.1501L33.2712 27.3299C31.5565 27.862 29.8532 28.1839 28.1584 28.3007L28.4336 32.2913ZM34.4965 31.1374C36.5851 30.4411 38.4223 29.5156 39.9721 28.3349L37.5479 25.1531C36.4097 26.0204 34.9829 26.7589 33.2315 27.3426L34.4965 31.1374ZM40.0184 28.2985C41.7295 26.9133 42.7821 25.1225 42.9611 22.9741L38.9749 22.6419C38.8979 23.5655 38.4785 24.3987 37.5016 25.1895L40.0184 28.2985ZM42.9629 22.9505C43.09 21.1717 42.6274 19.453 41.1984 18.2526C39.8729 17.1392 38.0608 16.776 36.168 16.776V20.776C37.6672 20.776 38.3511 21.0848 38.6256 21.3154C38.7966 21.459 39.038 21.7563 38.9731 22.6655L42.9629 22.9505ZM36.289 16.7797C33.6756 16.6213 31.3549 17.3894 29.5071 19.1533L32.269 22.0467C33.2371 21.1226 34.4364 20.6747 36.047 20.7723L36.289 16.7797ZM29.507 19.1533C27.8537 20.7315 26.6991 22.6051 26.085 24.7546L29.931 25.8534C30.3409 24.4189 31.1063 23.1565 32.269 22.0467L29.507 19.1533ZM28.0181 23.304L8.91405 23.208L8.89395 27.208L27.998 27.304L28.0181 23.304ZM10.8744 25.5507C11.5892 21.4406 13.1584 17.8423 15.5739 14.7197L12.4101 12.2723C9.57765 15.9337 7.75479 20.1434 6.93358 24.8653L10.8744 25.5507ZM15.5849 14.7054C18.0142 11.5059 21.0956 8.98233 24.859 7.13051L23.093 3.54148C18.7924 5.65766 15.2178 8.5741 12.3991 12.2866L15.5849 14.7054ZM24.8479 7.13596C28.6398 5.29923 32.944 4.36 37.8 4.36V0.359997C32.416 0.359997 27.5042 1.40477 23.1041 3.53604L24.8479 7.13596ZM37.8 4.36C42.3189 4.36 46.3132 5.09236 49.8144 6.51659L51.3216 2.8114C47.2708 1.16363 42.7531 0.359997 37.8 0.359997V4.36ZM49.8521 6.53149C53.3828 7.88493 55.9403 9.83466 57.657 12.3266L60.951 10.0574C58.6997 6.78933 55.4332 4.38707 51.2839 2.7965L49.8521 6.53149ZM57.6865 12.3683C59.377 14.6927 60.0479 17.5703 59.5321 21.1812L63.4919 21.7468C64.1281 17.2937 63.3271 13.3233 60.9215 10.0157L57.6865 12.3683ZM59.5301 21.1953C59.0745 24.5553 57.7359 27.1446 55.5661 29.0974L58.2419 32.0706C61.1922 29.4154 62.9255 25.9247 63.4939 21.7327L59.5301 21.1953ZM55.5474 29.1144C53.2717 31.2151 50.4724 32.8761 47.1113 34.0765L48.4567 37.8435C52.2637 36.4838 55.5443 34.5609 58.2606 32.0536L55.5474 29.1144ZM47.0639 37.8258C50.4338 39.1265 52.9624 40.9464 54.7514 43.2385L57.9046 40.7775C55.5976 37.8216 52.4302 35.6095 48.5042 34.0942L47.0639 37.8258ZM54.7514 43.2385C56.3773 45.3217 57.0806 48.1877 56.5538 52.1097L60.5182 52.6423C61.1434 47.9883 60.3747 43.9423 57.9046 40.7775L54.7514 43.2385ZM56.5533 52.1136C56.0312 56.0583 54.452 59.3735 51.812 62.1282L54.7 64.8958C57.9481 61.5065 59.8888 57.3977 60.5187 52.6384L56.5533 52.1136ZM51.812 62.1282C49.1121 64.9455 45.6474 67.1238 41.3598 68.6335L42.6883 72.4065C47.4886 70.7162 51.5119 68.2225 54.7 64.8958L51.812 62.1282ZM41.3513 68.6365C37.1158 70.1492 32.3872 70.92 27.144 70.92V74.92C32.7808 74.92 37.9722 74.0908 42.6967 72.4035L41.3513 68.6365Z" fill="#0073FF"/>
</svg>

<svg width="64" height="75" fill="none" xmlns="http://www.w3.org/2000/svg"><path d="M27.144 72.92l-.023 2h.023v-2zm-14.112-3.552l-1.063 1.694.017.01.017.011 1.029-1.715zm-8.448-9.312l-1.812.846.005.012.006.012 1.801-.87zM2.472 47.48l.01-2-1.847-.009-.156 1.84 1.993.169zm20.064.096l2 .047.047-2.037-2.037-.01-.01 2zm1.632 6.528l-1.623 1.169.027.037.028.035 1.568-1.241zm5.376 2.496l-.108 1.997.024.001.023.001.061-1.999zm5.76-1.44l1.02 1.72.009-.005.009-.005-1.038-1.71zm3.168-4.896l-1.953-.429-.015.069-.01.069 1.978.291zM35.784 44.6l-.914 1.78.02.009.02.01.874-1.799zm-9.216-1.92l-1.982-.27-.303 2.232 2.251.038.034-2zm1.344-9.888l-1.977-.304-.002.017-.003.018 1.982.269zm.384-2.496l-.138-1.995-1.596.11-.243 1.58 1.977.305zm5.568-1.056l.593 1.91.02-.006.02-.007-.633-1.897zm4.896-2.496l1.212 1.59.023-.017.023-.018-1.258-1.555zm2.208-3.936l1.993.166.001-.012v-.011l-1.994-.143zm-4.8-4.032l-.121 1.996.06.004h.061v-2zm-5.28 1.824l-1.38-1.447h-.001l1.381 1.447zm-2.88 4.704l-.01 2 1.516.008.417-1.459-1.923-.549zm-19.104-.096l-1.97-.343-.406 2.331 2.366.012.01-2zm5.088-11.712l1.582 1.224.005-.007.006-.008-1.593-1.209zm9.984-8.16l-.872-1.8-.011.005.883 1.795zm26.592-.672l-.754 1.853.02.007.018.007.716-1.867zm8.736 6.528l-1.647 1.135.015.02.015.021 1.617-1.176zm2.208 10.272l-1.98-.283v.007l-.002.007 1.982.269zm-4.608 9.12l-1.338-1.487-.01.009-.009.008 1.357 1.47zm-9.12 5.376l-.673-1.883-5.07 1.81 5.023 1.939.72-1.866zm10.752 16.416l-1.982-.266v.004l1.982.262zM42.024 70.52l-.664-1.886-.009.002.673 1.884zm-14.857.4c-5.299-.06-9.636-1.185-13.106-3.267l-2.058 3.43c4.21 2.526 9.28 3.77 15.118 3.837l.046-4zm-13.072-3.246c-3.473-2.178-6.026-5.003-7.71-8.488l-3.602 1.74c2.028 4.195 5.107 7.578 9.186 10.136l2.126-3.388zM6.396 59.21c-1.633-3.5-2.288-7.338-1.931-11.562l-3.986-.336c-.411 4.864.342 9.41 2.293 13.59l3.624-1.692zm-3.934-9.73l20.064.096.02-4-20.064-.096-.02 4zm18.075-1.95c-.07 3.018.518 5.673 2.008 7.743l3.246-2.338c-.814-1.13-1.313-2.827-1.256-5.313l-3.998-.093zm2.063 7.815c1.646 2.08 4.027 3.1 6.836 3.252l.216-3.994c-1.927-.104-3.13-.748-3.916-1.74L22.6 55.345zm6.883 3.254c2.47.075 4.769-.49 6.84-1.718l-2.039-3.442c-1.384.82-2.926 1.215-4.68 1.162l-.12 3.998zm6.859-1.73c2.33-1.414 3.707-3.582 4.109-6.314l-3.958-.582c-.238 1.62-.972 2.716-2.227 3.477l2.076 3.42zm4.084-6.176c.355-1.62.3-3.224-.387-4.67-.689-1.452-1.896-2.5-3.38-3.222l-1.75 3.597c.884.43 1.309.903 1.516 1.34.21.44.314 1.093.094 2.097l3.907.858zm-3.728-7.872c-2.73-1.402-6.134-2.074-10.096-2.14l-.068 3.999c3.59.06 6.33.67 8.336 1.7l1.828-3.56zm-8.148.128l1.344-9.888-3.964-.538-1.344 9.888 3.964.538zm1.339-9.853l.384-2.496-3.954-.608-.384 2.496 3.954.608zm-1.455-.805a26.404 26.404 0 006.023-1.14L33.27 27.33a22.4 22.4 0 01-5.113.97l.276 3.991zm6.062-1.154c2.09-.696 3.926-1.621 5.476-2.802l-2.424-3.182c-1.138.867-2.565 1.606-4.317 2.19l1.265 3.794zm5.522-2.838c1.712-1.386 2.764-3.177 2.943-5.325l-3.986-.332c-.077.924-.497 1.757-1.473 2.547l2.516 3.11zm2.945-5.348c.127-1.78-.336-3.498-1.765-4.698-1.325-1.114-3.137-1.477-5.03-1.477v4c1.5 0 2.183.309 2.458.54.17.143.412.44.347 1.35l3.99.285zm-6.674-6.171c-2.613-.159-4.934.61-6.782 2.373l2.762 2.894c.968-.924 2.167-1.372 3.778-1.275l.242-3.992zm-6.782 2.373c-1.653 1.579-2.808 3.452-3.422 5.602l3.846 1.098c.41-1.434 1.175-2.697 2.338-3.806l-2.762-2.894zm-1.489 4.151l-19.104-.096-.02 4 19.104.096.02-4zm-17.144 2.247c.715-4.11 2.284-7.709 4.7-10.831l-3.164-2.448c-2.832 3.662-4.655 7.871-5.476 12.593l3.94.686zm4.71-10.846c2.43-3.2 5.512-5.723 9.275-7.574l-1.766-3.59c-4.3 2.117-7.875 5.033-10.694 8.746l3.186 2.418zm9.264-7.569C28.64 5.299 32.944 4.36 37.8 4.36v-4c-5.384 0-10.296 1.045-14.696 3.176l1.744 3.6zM37.8 4.36c4.519 0 8.513.732 12.014 2.157l1.508-3.706C47.27 1.164 42.753.36 37.8.36v4zm12.052 2.171c3.53 1.354 6.088 3.304 7.805 5.796l3.294-2.27c-2.251-3.268-5.518-5.67-9.667-7.26L49.852 6.53zm7.835 5.837c1.69 2.325 2.36 5.202 1.845 8.813l3.96.566c.636-4.453-.165-8.424-2.57-11.731l-3.235 2.352zm1.843 8.827c-.456 3.36-1.794 5.95-3.964 7.902l2.676 2.974c2.95-2.656 4.684-6.146 5.252-10.338l-3.964-.538zm-3.983 7.92c-2.275 2.1-5.075 3.761-8.436 4.962l1.346 3.767c3.807-1.36 7.087-3.283 9.804-5.79l-2.714-2.94zm-8.483 8.71c3.37 1.301 5.898 3.121 7.687 5.413l3.154-2.46c-2.307-2.956-5.475-5.169-9.4-6.684l-1.441 3.732zm7.687 5.413c1.626 2.084 2.33 4.95 1.803 8.872l3.964.532c.625-4.654-.143-8.7-2.613-11.864l-3.154 2.46zm1.802 8.876c-.522 3.944-2.101 7.26-4.741 10.014l2.888 2.768c3.248-3.39 5.189-7.498 5.819-12.258l-3.966-.524zm-4.741 10.014c-2.7 2.817-6.165 4.996-10.452 6.505l1.328 3.773c4.8-1.69 8.824-4.184 12.012-7.51l-2.888-2.768zm-10.46 6.508c-4.236 1.513-8.965 2.284-14.208 2.284v4c5.637 0 10.828-.83 15.553-2.517l-1.346-3.767z" fill="#0073FF"/></svg>
